svg/u1f309.svg

<svg viewBox="0 0 128 128" xmlns="http://www.w3.org/2000/svg">
  <radialGradient id="SVGID_1_" cx="66.5225" cy="139.6644" gradientTransform="matrix(-3.215417e-03 -1 1.2847 -4.130831e-03 -112.6888 206.7635)" gradientUnits="userSpaceOnUse" r="134.8811">
    <stop offset="0.2828" stop-color="#89AF7C"/>
    <stop offset="0.3935" stop-color="#649E6E"/>
    <stop offset="0.451" stop-color="#588F6E"/>
    <stop offset="0.5615" stop-color="#3A676D"/>
    <stop offset="0.5623" stop-color="#3A676D"/>
    <stop offset="0.7767" stop-color="#245379"/>
    <stop offset="0.9672" stop-color="#0C3D86"/>
  </radialGradient>
  <path d="M116.62,124.26H11.32c-4.15,0-7.52-3.37-7.52-7.52V11.44c0-4.15,3.37-7.52,7.52-7.52h105.3 c4.15,0,7.52,3.37,7.52,7.52v105.3C124.15,120.89,120.78,124.26,116.62,124.26z" fill="url(#SVGID_1_)"/>
  <path d="M16.51,121.06L3.8,108.53V97.48c0,0,9.82-0.07,15.93,1.49c7.72,1.97,15.05,5.98,15.05,5.98 s10.43-4.99,22.2-6.61c9.53-1.31,27.57-3.99,43.01-1.69c10.21,1.52,18.24,7.76,18.24,7.76s2.46-0.72,3.9-1.01 c1.44-0.29,2.02-0.51,2.02-0.51l-0.02,5.48l-9.46,11.65L16.51,121.06z" fill="#2D2D2D"/>
  <rect height="1.5" fill="#F86E49" transform="matrix(5.208263e-03 -1 1 5.208263e-03 -11.3206 104.0085)" width="48.32" x="22.45" y="56.94"/>
  <rect height="35.41" fill="#F86E49" width="1.5" x="35.31" y="45.18"/>
  <rect height="25.57" fill="#F86E49" width="1.5" x="25.3" y="54.45"/>
  <rect height="19.2" fill="#F86E49" width="1.5" x="15.78" y="61.24"/>
  <rect height="13.83" fill="#F86E49" width="1.5" x="4.94" y="65.94"/>
  <rect height="33.31" fill="#F86E49" width="1.5" x="78.84" y="47.77"/>
  <rect height="24.63" fill="#F86E49" transform="matrix(1 -8.245671e-03 8.245671e-03 1 -0.564 0.7377)" width="1.5" x="88.43" y="56.45"/>
  <rect height="15.26" fill="#F86E49" width="1.5" x="98.47" y="64.97"/>
  <rect height="9.21" fill="#F86E49" width="1.5" x="108.52" y="71.51"/>
  <path d="M3.78,64.81c4.83-2.41,14.75-7.89,25.72-16.98c17.36-14.39,26.04-27.76,26.15-27.95 c0.01-0.01,1.49,0.19,2.17,0.23c0.68,0.01,2.2-0.9,2.53-0.3c0.1,0.19,9.84,17.04,29.95,34.82c13.36,11.81,28.29,17.87,33.83,19.85 l0.02,4.03c-4.48-1.48-21.17-7.6-36.37-21.04c-16.3-14.42-26.05-29.27-29.73-35.2c-3.46,5.14-12.37,17.07-26.12,28.48 C19.1,61.39,7.88,67.12,3.78,69.04L3.78,64.81z" fill="#A42718"/>
  <path d="M124.15,108.37v8.37c0,4.15-3.37,7.52-7.52,7.52H11.32c-4.15,0-7.52-3.37-7.52-7.52v-8.21 L124.15,108.37z" fill="#024FAC"/>
  <path d="M44,124.26l41.83,0c0,0,0.73-0.21,0.66-1.5c-0.1-2.02-3.18-2.25-3.18-2.25s7.21-0.27,9.06-2.06 c1.38-1.34,0.93-3.57,0.02-3.78c-0.91-0.21-55.42-1.05-55.42-1.05s-1.57,0.22-1.29,2.67c0.21,1.81,2.81,3.17,5.32,3.41 c1.69,0.16,4.64,0.36,4.64,0.36s-2.07,0.54-2.26,2.45C43.28,123.68,44,124.26,44,124.26z" fill="#1A1A1D"/>
  <line fill="none" stroke="#FE5317" stroke-width="2.3" stroke-miterlimit="10" x1="60.24" x2="70.56" y1="102" y2="91.09"/>
  <line fill="none" stroke="#FE5317" stroke-width="2.3" stroke-miterlimit="10" x1="60.14" x2="70.02" y1="91.52" y2="102.22"/>
  <rect height="9.05" fill="#FF5117" width="120.35" x="3.79" y="79.55"/>
  <rect height="10.9" fill="#F86E49" width="1.5" x="6.65" y="78.05"/>
  <rect height="16.84" fill="#F86E49" width="1.5" x="17.91" y="72.48"/>
  <rect height="23.26" fill="#F86E49" width="1.5" x="27.6" y="66.18"/>
  <rect height="31.5" fill="#F86E49" width="1.5" x="38.02" y="57.58"/>
  <rect height="41.43" fill="#F86E49" width="1.5" x="48.2" y="47.77"/>
  <rect height="58.87" fill="#F86E49" width="1.5" x="81.15" y="30.45"/>
  <rect height="47.73" fill="#F86E49" width="1.5" x="90.59" y="41.23"/>
  <rect height="37.92" fill="#F86E49" width="1.5" x="100.41" y="50.8"/>
  <rect height="30.04" fill="#F86E49" width="1.5" x="111.07" y="58.31"/>
  <rect height="23.86" fill="#F86E49" width="1.5" x="120.76" y="64.85"/>
  <path d="M124.15,62.17c-4.49-1.89-14.31-6.56-24.87-15.01C82.05,33.38,75.34,20,75.28,19.87l-3.36,1.71 c0.27,0.58,7.01,14.17,24.99,28.55c12.37,9.89,23.49,14.7,27.24,16.16L124.15,62.17z" fill="#A42718"/>
  <path d="M53.58,101.6l0.46-59.63h1.6V19.88l1.34-0.04c0,0,0-1.11,0.01-2.13c0.01-1.06,0.52-1.78,1.3-1.81 c1.86-0.07,1.87,3.32,1.87,3.32s2.06,1.66,5.82,1.61c3.76-0.05,4.73-1.43,4.73-1.43s-0.02-3.7,1.39-3.69c1.01,0,1.63,0.63,1.67,1.76 c0.03,1.14,0.05,2.4,0.05,2.4l1.47,0.01l-0.21,22.24l1.23-0.01l-0.39,59.98l-6.15-0.37L69.7,89.84l-0.02-3.82l-0.39-60.01h-8.1 l-0.55,59.76l-0.04,4.45l-0.1,11.32L53.58,101.6z" fill="#FE5314"/>
  <path d="M59.06,63.13h14.55l-3.64-7.07c0,0-2.56,1.21-4.99,1.21c-2.43,0-5.46-2.56-5.46-2.56L59.06,63.13z" fill="#FE5314"/>
  <path d="M60.27,45.48c0,0,1.06-1.03,1.95-1.48c1.21-0.61,4.85-0.61,6.2,0c0.8,0.36,2.43,2.49,2.43,2.49 l-0.67-11.97c0,0-0.89,3.97-4.72,4.35c-1.74,0.17-5.12-2.09-5.12-2.09L60.27,45.48z" fill="#FE5314"/>
  <path d="M58.99,20.21c1.3,1.18,3.94,1.94,6.14,1.88c3.02-0.07,5.89-0.96,6.87-1.57 c0.19-0.12,0.11-4.81,0.11-4.81s-0.8-0.13-1.22,0.67c-0.44,0.84-0.32,2.85-0.32,2.85s-1.66,1.49-5.44,1.43 c-3.25-0.06-4.71-1.28-4.71-1.28s-0.28-2.28-0.72-2.93c-0.5-0.73-1.34-0.56-1.34-0.56S58.66,19.91,58.99,20.21z" fill="#F86E49"/>
  <path d="M60.98,36.29c-0.6-0.2-0.52,0.87,0.29,1.84c1.12,1.36,6,1.21,7.22,0.21 c0.86-0.71,0.89-1.44,0.84-2.01c-0.03-0.37-2.11,0.93-4.26,0.88C62.91,37.17,61.58,36.49,60.98,36.29z" fill="#F86E49"/>
  <path d="M60.98,55.44c-0.58,0.17-0.22,1.41,0.85,2.3c1.47,1.22,5.44,1.07,6.59,0.17 c1.1-0.85,1.38-2.08,1.04-2.37c-0.33-0.29-2.42,0.96-4.09,0.98C62.81,56.55,61.51,55.28,60.98,55.44z" fill="#F86E49"/>
  <polygon points="124.16,92.88 3.79,92.87 3.79,88.46 124.14,88.42 " fill="#A42718"/>
  <rect height="51.27" fill="#F86E49" width="1.5" x="57.23" y="37.17"/>
  <path d="M3.78,77.57c4.91-2.16,18.55-8.93,35.81-24.02c21.63-18.9,28.63-32.79,29.56-33.53 c0.04-0.04,1.42-0.84,1.42-0.84l1.08,0.47c-0.05,0.12-0.15,1.98-0.17,2.01c-2.65,4.52-10.84,18.55-29.38,34.75 C22.13,73.85,7.15,80.36,3.78,81.7L3.78,77.57z" fill="#A42718"/>
  <path d="M51.39,111.85c0,0-9.55,0-11.87,0.26c-1.55,0.17-3.6,0.91-3.75,2.35c-0.19,1.78,1.73,3.02,6.59,3.02 s42.32,0.08,45.77-0.07s5.01-0.9,4.89-2.66c-0.14-1.92-3.75-2.22-6.07-2.52c-2.04-0.26-9.28-0.42-9.28-0.42s0.24-8.43-0.16-9.28 c-0.4-0.85-13.69-0.77-13.69-0.77s-12.15-0.13-12.27,0.62C51.42,103.17,51.39,111.85,51.39,111.85z" fill="#4F838F"/>
  <path d="M52.16,101.02c-0.89,0.28-0.71,2-0.71,2l26.17,0.05c0,0,0.07-1.8-1.04-1.97 C75.08,100.86,53.24,100.68,52.16,101.02z" fill="#79AEC0"/>
  <circle cx="67.06" cy="8.7" r="1.51" fill="#FFBB23"/>
  <ellipse cx="21.88" cy="20.04" rx="1.8" ry="1.64" fill="#FAC018" transform="matrix(0.385 -0.9229 0.9229 0.385 -5.0451 32.5168)"/>
  <ellipse cx="36.78" cy="19.48" rx="1.38" ry="1.41" fill="#FFBB23"/>
  <circle cx="88.6" cy="23.51" r="1.26" fill="#FFBB23"/>
  <path d="M98.37,35.54c0.07,1.03-0.67,1.49-1.43,1.54c-0.76,0.04-1.42-0.59-1.47-1.42s0.53-1.54,1.29-1.59 C97.53,34.02,98.29,34.41,98.37,35.54z" fill="#FFBB23"/>
  <ellipse cx="117.79" cy="25.96" rx="1.51" ry="1.57" fill="#FFBB23" transform="matrix(0.9634 -0.2682 0.2682 0.9634 -2.6478 32.547)"/>
  <ellipse cx="11.78" cy="33.76" rx="1.43" ry="1.51" fill="#FFBB23" transform="matrix(0.7071 -0.7071 0.7071 0.7071 -20.4187 18.2205)"/>
  <path d="M30.33,33c0,0-1.52-2.57-1.99-2.47c-0.49,0.11-0.36,3.27-0.36,3.27s-2.81,0.64-2.88,1.06 c-0.06,0.42,2.95,1.44,2.95,1.44s-0.1,3.14,0.26,3.17s2.24-2.34,2.24-2.34s2.66,0.87,2.92,0.58c0.15-0.17-1.44-2.76-1.44-2.76 s1.6-2.18,1.38-2.56S30.33,33,30.33,33z" fill="#FFBB23"/>
  <path d="M99.75,16.86c0,0,1.93-2.31,2.2-2.18c0.27,0.14,0.05,2.94,0.05,2.94s2.8-0.03,2.83,0.35 c0.03,0.39-2.21,1.74-2.21,1.74s1.06,2.48,0.98,2.57c-0.24,0.26-2.69-0.94-2.69-0.94s-1.15,2.37-1.55,2.37s-0.74-2.87-0.74-2.87 s-2.54,0.07-2.62-0.23s1.98-2.04,1.98-2.04s-1.55-2.47-1.2-2.83C97.14,15.39,99.75,16.86,99.75,16.86z" fill="#FFBB23"/>
</svg>

<svg viewBox="0 0 128 128" xmlns="http://www.w3.org/2000/svg">
  <defs>
    <radialGradient id="SVGID_1_" cx="-139.876526" cy="51.431771" gradientTransform="matrix(-0.003215 -1 1.2847 -0.004131 0 0)" gradientUnits="userSpaceOnUse" r="134.8811">
      <stop offset="0.2828" stop-color="#89AF7C"/>
      <stop offset="0.3935" stop-color="#649E6E"/>
      <stop offset="0.451" stop-color="#588F6E"/>
      <stop offset="0.5615" stop-color="#3A676D"/>
      <stop offset="0.5623" stop-color="#3A676D"/>
      <stop offset="0.7767" stop-color="#245379"/>
      <stop offset="0.9672" stop-color="#0C3D86"/>
    </radialGradient>
  </defs>
  <path d="M116.62,124.26 L11.32,124.26 C7.17,124.26 3.8,120.89 3.8,116.74 L3.8,11.44 C3.8,7.29 7.17,3.92 11.32,3.92 L116.62,3.92 C120.77,3.92 124.14,7.29 124.14,11.44 L124.14,116.74 C124.15,120.89 120.78,124.26 116.62,124.26 Z" fill="url(#SVGID_1_)"/>
  <path d="M16.51,121.06 L3.8,108.53 L3.8,97.48 C3.8,97.48 13.62,97.41 19.73,98.97 C27.45,100.94 34.78,104.95 34.78,104.95 C34.78,104.95 45.21,99.96 56.98,98.34 C66.51,97.03 84.55,94.35 99.99,96.65 C110.2,98.17 118.23,104.41 118.23,104.41 C118.23,104.41 120.69,103.69 122.13,103.4 C123.57,103.11 124.15,102.89 124.15,102.89 L124.13,108.37 L114.67,120.02 L16.51,121.06 Z" fill="#2D2D2D"/>
  <path d="M45.736,81.855 L45.988,33.535 L47.488,33.543 L47.236,81.863 L45.736,81.855 Z" fill="#F86E49"/>
  <path d="M35.31,45.18 L36.81,45.18 L36.81,80.59 L35.31,80.59 L35.31,45.18 Z" fill="#F86E49"/>
  <path d="M25.3,54.45 L26.8,54.45 L26.8,80.02 L25.3,80.02 L25.3,54.45 Z" fill="#F86E49"/>
  <path d="M15.78,61.24 L17.28,61.24 L17.28,80.44 L15.78,80.44 L15.78,61.24 Z" fill="#F86E49"/>
  <path d="M4.94,65.94 L6.44,65.94 L6.44,79.77 L4.94,79.77 L4.94,65.94 Z" fill="#F86E49"/>
  <path d="M78.84,47.77 L80.34,47.77 L80.34,81.08 L78.84,81.08 L78.84,47.77 Z" fill="#F86E49"/>
  <path d="M88.331,56.459 L89.831,56.446 L90.035,81.076 L88.535,81.089 L88.331,56.459 Z" fill="#F86E49"/>
  <path d="M98.47,64.97 L99.97,64.97 L99.97,80.23 L98.47,80.23 L98.47,64.97 Z" fill="#F86E49"/>
  <path d="M108.52,71.51 L110.02,71.51 L110.02,80.72 L108.52,80.72 L108.52,71.51 Z" fill="#F86E49"/>
  <path d="M3.78,64.81 C8.61,62.4 18.53,56.92 29.5,47.83 C46.86,33.44 55.54,20.07 55.65,19.88 C55.66,19.87 57.14,20.07 57.82,20.11 C58.5,20.12 60.02,19.21 60.35,19.81 C60.45,20 70.19,36.85 90.3,54.63 C103.66,66.44 118.59,72.5 124.13,74.48 L124.15,78.51 C119.67,77.03 102.98,70.91 87.78,57.47 C71.48,43.05 61.73,28.2 58.05,22.27 C54.59,27.41 45.68,39.34 31.93,50.75 C19.1,61.39 7.88,67.12 3.78,69.04 L3.78,64.81 Z" fill="#A42718"/>
  <path d="M124.15,108.37 L124.15,116.74 C124.15,120.89 120.78,124.26 116.63,124.26 L11.32,124.26 C7.17,124.26 3.8,120.89 3.8,116.74 L3.8,108.53 L124.15,108.37 Z" fill="#024FAC"/>
  <path d="M44,124.26 L85.83,124.26 C85.83,124.26 86.56,124.05 86.49,122.76 C86.39,120.74 83.31,120.51 83.31,120.51 C83.31,120.51 90.52,120.24 92.37,118.45 C93.75,117.11 93.3,114.88 92.39,114.67 C91.48,114.46 36.97,113.62 36.97,113.62 C36.97,113.62 35.4,113.84 35.68,116.29 C35.89,118.1 38.49,119.46 41,119.7 C42.69,119.86 45.64,120.06 45.64,120.06 C45.64,120.06 43.57,120.6 43.38,122.51 C43.28,123.68 44,124.26 44,124.26 Z" fill="#1A1A1D"/>
  <path d="M59.405,101.21 L69.725,90.3 L71.395,91.88 L61.075,102.79 L59.405,101.21 Z" fill="#FE5317"/>
  <path d="M60.985,90.74 L70.865,101.44 L69.175,103 L59.295,92.3 L60.985,90.74 Z" fill="#FE5317"/>
  <path d="M3.79,79.55 L124.14,79.55 L124.14,88.6 L3.79,88.6 L3.79,79.55 Z" fill="#FF5117"/>
  <path d="M6.65,78.05 L8.15,78.05 L8.15,88.95 L6.65,88.95 L6.65,78.05 Z" fill="#F86E49"/>
  <path d="M17.91,72.48 L19.41,72.48 L19.41,89.32 L17.91,89.32 L17.91,72.48 Z" fill="#F86E49"/>
  <path d="M27.6,66.18 L29.1,66.18 L29.1,89.44 L27.6,89.44 L27.6,66.18 Z" fill="#F86E49"/>
  <path d="M38.02,57.58 L39.52,57.58 L39.52,89.08 L38.02,89.08 L38.02,57.58 Z" fill="#F86E49"/>
  <path d="M48.2,47.77 L49.7,47.77 L49.7,89.2 L48.2,89.2 L48.2,47.77 Z" fill="#F86E49"/>
  <path d="M81.15,30.45 L82.65,30.45 L82.65,89.32 L81.15,89.32 L81.15,30.45 Z" fill="#F86E49"/>
  <path d="M90.59,41.23 L92.09,41.23 L92.09,88.96 L90.59,88.96 L90.59,41.23 Z" fill="#F86E49"/>
  <path d="M100.41,50.8 L101.91,50.8 L101.91,88.72 L100.41,88.72 L100.41,50.8 Z" fill="#F86E49"/>
  <path d="M111.07,58.31 L112.57,58.31 L112.57,88.35 L111.07,88.35 L111.07,58.31 Z" fill="#F86E49"/>
  <path d="M120.76,64.85 L122.26,64.85 L122.26,88.71 L120.76,88.71 L120.76,64.85 Z" fill="#F86E49"/>
  <path d="M124.15,62.17 C119.66,60.28 109.84,55.61 99.28,47.16 C82.05,33.38 75.34,20 75.28,19.87 L71.92,21.58 C72.19,22.16 78.93,35.75 96.91,50.13 C109.28,60.02 120.4,64.83 124.15,66.29 L124.15,62.17 Z" fill="#A42718"/>
  <path d="M53.58,101.6 L54.04,41.97 L55.64,41.97 L55.64,19.88 L56.98,19.84 C56.98,19.84 56.98,18.73 56.99,17.71 C57,16.65 57.51,15.93 58.29,15.9 C60.15,15.83 60.16,19.22 60.16,19.22 C60.16,19.22 62.22,20.88 65.98,20.83 C69.74,20.78 70.71,19.4 70.71,19.4 C70.71,19.4 70.69,15.7 72.1,15.71 C73.11,15.71 73.73,16.34 73.77,17.47 C73.8,18.61 73.82,19.87 73.82,19.87 L75.29,19.88 L75.08,42.12 L76.31,42.11 L75.92,102.09 L69.77,101.72 L69.7,89.84 L69.68,86.02 L69.29,26.01 L61.19,26.01 L60.64,85.77 L60.6,90.22 L60.5,101.54 L53.58,101.6 Z" fill="#FE5314"/>
  <path d="M59.06,63.13 L73.61,63.13 L69.97,56.06 C69.97,56.06 67.41,57.27 64.98,57.27 C62.55,57.27 59.52,54.71 59.52,54.71 L59.06,63.13 Z" fill="#FE5314"/>
  <path d="M60.27,45.48 C60.27,45.48 61.33,44.45 62.22,44 C63.43,43.39 67.07,43.39 68.42,44 C69.22,44.36 70.85,46.49 70.85,46.49 L70.18,34.52 C70.18,34.52 69.29,38.49 65.46,38.87 C63.72,39.04 60.34,36.78 60.34,36.78 L60.27,45.48 Z" fill="#FE5314"/>
  <path d="M58.99,20.21 C60.29,21.39 62.93,22.15 65.13,22.09 C68.15,22.02 71.02,21.13 72,20.52 C72.19,20.4 72.11,15.71 72.11,15.71 C72.11,15.71 71.31,15.58 70.89,16.38 C70.45,17.22 70.57,19.23 70.57,19.23 C70.57,19.23 68.91,20.72 65.13,20.66 C61.88,20.6 60.42,19.38 60.42,19.38 C60.42,19.38 60.14,17.1 59.7,16.45 C59.2,15.72 58.36,15.89 58.36,15.89 C58.36,15.89 58.66,19.91 58.99,20.21 Z" fill="#F86E49"/>
  <path d="M60.98,36.29 C60.38,36.09 60.46,37.16 61.27,38.13 C62.39,39.49 67.27,39.34 68.49,38.34 C69.35,37.63 69.38,36.9 69.33,36.33 C69.3,35.96 67.22,37.26 65.07,37.21 C62.91,37.17 61.58,36.49 60.98,36.29 Z" fill="#F86E49"/>
  <path d="M60.98,55.44 C60.4,55.61 60.76,56.85 61.83,57.74 C63.3,58.96 67.27,58.81 68.42,57.91 C69.52,57.06 69.8,55.83 69.46,55.54 C69.13,55.25 67.04,56.5 65.37,56.52 C62.81,56.55 61.51,55.28 60.98,55.44 Z" fill="#F86E49"/>
  <path d="M124.16,92.88 L3.79,92.87 L3.79,88.46 L124.14,88.42 Z" fill="#A42718"/>
  <path d="M57.23,37.17 L58.73,37.17 L58.73,88.44 L57.23,88.44 L57.23,37.17 Z" fill="#F86E49"/>
  <path d="M3.78,77.57 C8.69,75.41 22.33,68.64 39.59,53.55 C61.22,34.65 68.22,20.76 69.15,20.02 C69.19,19.98 70.57,19.18 70.57,19.18 L71.65,19.65 C71.6,19.77 71.5,21.63 71.48,21.66 C68.83,26.18 60.64,40.21 42.1,56.41 C22.13,73.85 7.15,80.36 3.78,81.7 L3.78,77.57 Z" fill="#A42718"/>
  <path d="M51.39,111.85 C51.39,111.85 41.84,111.85 39.52,112.11 C37.97,112.28 35.92,113.02 35.77,114.46 C35.58,116.24 37.5,117.48 42.36,117.48 C47.22,117.48 84.68,117.56 88.13,117.41 C91.58,117.26 93.14,116.51 93.02,114.75 C92.88,112.83 89.27,112.53 86.95,112.23 C84.91,111.97 77.67,111.81 77.67,111.81 C77.67,111.81 77.91,103.38 77.51,102.53 C77.11,101.68 63.82,101.76 63.82,101.76 C63.82,101.76 51.67,101.63 51.55,102.38 C51.42,103.17 51.39,111.85 51.39,111.85 Z" fill="#4F838F"/>
  <path d="M52.16,101.02 C51.27,101.3 51.45,103.02 51.45,103.02 L77.62,103.07 C77.62,103.07 77.69,101.27 76.58,101.1 C75.08,100.86 53.24,100.68 52.16,101.02 Z" fill="#79AEC0"/>
  <path d="M68.57,8.7 A1.51 1.51 0 1 1 65.55,8.7 A1.51 1.51 0 1 1 68.57,8.7 Z" fill="#FFBB23"/>
  <path d="M22.567,18.378 C23.403,18.727 23.77,19.753 23.387,20.671 C23.004,21.588 22.017,22.049 21.181,21.7 C20.345,21.352 19.977,20.325 20.36,19.408 C20.743,18.49 21.731,18.029 22.567,18.378 Z" fill="#FAC018"/>
  <path d="M38.16,19.48 A1.38 1.41 0 1 1 35.4,19.48 A1.38 1.41 0 1 1 38.16,19.48 Z" fill="#FFBB23"/>
  <path d="M89.86,23.51 A1.26 1.26 0 1 1 87.34,23.51 A1.26 1.26 0 1 1 89.86,23.51 Z" fill="#FFBB23"/>
  <path d="M98.37,35.54 C98.44,36.57 97.7,37.03 96.94,37.08 C96.18,37.12 95.52,36.49 95.47,35.66 C95.42,34.83 96,34.12 96.76,34.07 C97.53,34.02 98.29,34.41 98.37,35.54 Z" fill="#FFBB23"/>
  <path d="M119.248,25.561 C119.481,26.396 119.018,27.254 118.215,27.478 C117.411,27.702 116.571,27.206 116.339,26.371 C116.106,25.535 116.569,24.677 117.372,24.453 C118.176,24.229 119.016,24.725 119.248,25.561 Z" fill="#FFBB23"/>
  <path d="M12.794,32.751 C13.383,33.341 13.409,34.272 12.85,34.83 C12.292,35.389 11.361,35.363 10.771,34.774 C10.182,34.184 10.156,33.253 10.715,32.695 C11.273,32.136 12.204,32.162 12.794,32.751 Z" fill="#FFBB23"/>
  <path d="M30.33,33 C30.33,33 28.81,30.43 28.34,30.53 C27.85,30.64 27.98,33.8 27.98,33.8 C27.98,33.8 25.17,34.44 25.1,34.86 C25.04,35.28 28.05,36.3 28.05,36.3 C28.05,36.3 27.95,39.44 28.31,39.47 C28.67,39.5 30.55,37.13 30.55,37.13 C30.55,37.13 33.21,38 33.47,37.71 C33.62,37.54 32.03,34.95 32.03,34.95 C32.03,34.95 33.63,32.77 33.41,32.39 C33.19,32.01 30.33,33 30.33,33 Z" fill="#FFBB23"/>
  <path d="M99.75,16.86 C99.75,16.86 101.68,14.55 101.95,14.68 C102.22,14.82 102,17.62 102,17.62 C102,17.62 104.8,17.59 104.83,17.97 C104.86,18.36 102.62,19.71 102.62,19.71 C102.62,19.71 103.68,22.19 103.6,22.28 C103.36,22.54 100.91,21.34 100.91,21.34 C100.91,21.34 99.76,23.71 99.36,23.71 C98.96,23.71 98.62,20.84 98.62,20.84 C98.62,20.84 96.08,20.91 96,20.61 C95.92,20.31 97.98,18.57 97.98,18.57 C97.98,18.57 96.43,16.1 96.78,15.74 C97.14,15.39 99.75,16.86 99.75,16.86 Z" fill="#FFBB23"/>
</svg>
